X:1
T:Title
%%score 1 ( 2 3 )
L:1/8
Q:1/4=113
M:6/8
K:Bb
V:1 treble nm="Grand Piano, Staff 1"
V:2 bass nm="Choir Pad, Staff 2"
V:3 bass 
V:1
 [GB]2 [GB] [^Fc]2 [Fc] | [GB]2 [^FA] [GB]3 | E2 E [DF]2 [EG] | [B,F]2 [CF] [DB]3 | %4
w: By~Elisha~Albright~Hoffman,~1898 * * *||||
 [GB]2 [GB] [^Fc]2 [Fc] | [GB]2 [^FA] [FB]3 | [Ge]2 [Ge] [Fd]2 [Gc] | [FB]2 [EA] [DB]3 | %8
w: ||||
 [EB]2 [EB] [Ec]2 [Ec] | [_DG]2 [DG] [C_A]2 [CA] | [DF]2 [DF] [EB]2 [F_A] | [EG]3 [EB]3 | %12
w: ||||
 [Ge]2 [Ge] [Fd]2 [Fd] | [Ec]2 [_Ae] [Ge]2 [EB] | [EB]2 [F_A] [EG]2 [DF] | E6- | E3 z3 |] %17
w: |||||
V:2
 [E,B,]2 [E,B,] [E,A,]2 [E,A,] | [E,B,]2 [E,C] [E,B,]3 | [G,B,]2 [G,B,] [F,B,]2 [E,B,] | %3
 [D,B,]2 [C,A,] [B,,B,]3 | [E,B,]2 [E,B,] [E,A,]2 [E,A,] | [E,B,]2 [E,C] [D,B,]3 | %6
 [C,G,]2 [C,G,] [D,B,]2 [E,E] | [F,D]2 [F,C] [B,,B,]3 | [E,G,]2 [E,G,] [C,G,]2 [C,G,] | %9
 [=E,B,]2 [E,B,] [F,_A,]2 [F,A,] | [B,,B,]2 [B,,B,] [C,F,]2 [D,B,] | B,3 z3 | %12
 [C,C]2 [C,C] [G,=B,]2 [G,B,] | [_A,C]2 [A,C] [E,B,]2 [E,G,] | [G,B,]2 [_A,C] B,2 [B,,A,] | %15
 [E,G,]6- | [E,G,]3 z3 |] %17
V:3
 x6 | x6 | x6 | x6 | x6 | x6 | x6 | x6 | x6 | x6 | x6 | E,3- [E,G,]3 | x6 | x6 | x6 | x6 | x6 |] %17

